build/Karasa-Jaga/scalable/status/audio-volume-low-symbolic-osd.svg

<svg height="16" viewBox="0 0 16 14.545455" width="16" xmlns="http://www.w3.org/2000/svg"><g fill="#bebebe"><path d="m7.140625.984375-3.84375 4.6191406-.296875.9003906v-.4101562h-2.39453125v3.8125h2.39453125v-.4101562l.296875.9003902 3.84375 4.619141v-6.9980469-.0351562zm-3.3398438 8.2460938c-2.5338541 4.5130212-1.2669271 2.2565102 0 0z" stroke-width=".770655" transform="translate(0 -.727273)"/><g stroke-width=".778641"><path d="m15.393938 7.2727276c0-2.5108828-.938028-4.6577505-2.293875-5.6447554l-.899564.8096306c1.167494.8267607 1.979071 2.6883344 1.979071 4.8351248s-.811499 4.0084434-1.979071 4.8351254l.899564.809631c1.355613-.986538 2.293875-3.1332511 2.293875-5.6443674z" opacity=".35"/><path d="m13.009741 7.2727276c0-1.6980602-.645307-3.1804355-1.619184-4.1155051l-.831744.7421224c.751622.79943 1.237027 2.0110729 1.237027 3.3733828s-.485226 2.5739527-1.236871 3.3733833l.832055.742138c.974002-.934369 1.618717-2.4169011 1.618717-4.1151163z" opacity=".35"/><path d="m10.716254 7.2727276c0-1.0322436-.342119-1.9793048-.8995634-2.7211932l-.8546358.7646247c.3366842.5628022.5397536 1.2366371.5397536 1.9565686 0 .7199386-.2031086 1.3937664-.5397385 1.9565679l.8545584.7646256c.5575067-.7420447.8996417-1.6891056.8996417-2.7213493z"/></g></g></svg>

<?xml version="1.0" encoding="UTF-8" standalone="no"?>
<!-- Created with Inkscape (http://www.inkscape.org/) -->

<svg
   xmlns:dc="http://purl.org/dc/elements/1.1/"
   xmlns:cc="http://creativecommons.org/ns#"
   xmlns:rdf="http://www.w3.org/1999/02/22-rdf-syntax-ns#"
   xmlns:svg="http://www.w3.org/2000/svg"
   xmlns="http://www.w3.org/2000/svg"
   xmlns:xlink="http://www.w3.org/1999/xlink"
   xmlns:sodipodi="http://sodipodi.sourceforge.net/DTD/sodipodi-0.dtd"
   xmlns:inkscape="http://www.inkscape.org/namespaces/inkscape"
   version="1.0"
   width="16"
   height="16"
   viewBox="0 0 16 14.545455"
   id="Livello_1"
   xml:space="preserve"
   style="overflow:visible"
   sodipodi:version="0.32"
   inkscape:version="0.92.2pre0 (973e216, 2017-07-25)"
   sodipodi:docname="audio-volume-low-symbolic-osd.svg"
   inkscape:output_extension="org.inkscape.output.svgz.inkscape"
   inkscape:export-filename="/usr/share/icons/Karasa Jaga/24x24/status/audio-volume-high-panel.png"
   inkscape:export-xdpi="480"
   inkscape:export-ydpi="480"><metadata
     id="metadata83"><rdf:RDF><cc:Work
         rdf:about=""><dc:format>image/svg+xml</dc:format><dc:type
           rdf:resource="http://purl.org/dc/dcmitype/StillImage" /><dc:title></dc:title></cc:Work></rdf:RDF></metadata><sodipodi:namedview
     inkscape:window-height="696"
     inkscape:window-width="1366"
     inkscape:pageshadow="2"
     inkscape:pageopacity="0"
     guidetolerance="10.0"
     gridtolerance="10.0"
     objecttolerance="10.0"
     borderopacity="1.0"
     bordercolor="#666666"
     pagecolor="#ffffff"
     id="base"
     inkscape:zoom="20.166667"
     inkscape:cx="-9.9627924"
     inkscape:cy="9.0848125"
     inkscape:window-x="0"
     inkscape:window-y="0"
     inkscape:current-layer="Livello_1"
     showgrid="false"
     inkscape:window-maximized="1" /><defs
     id="defs3353"><linearGradient
       id="linearGradient3973"><stop
         style="stop-color:#ffffff;stop-opacity:1;"
         offset="0"
         id="stop3975" /><stop
         style="stop-color:#ffffff;stop-opacity:0.78750002;"
         offset="1"
         id="stop3977" /></linearGradient><linearGradient
       x1="19"
       y1="27.142599"
       x2="19"
       y2="49.465099"
       id="linearGradient4161"
       xlink:href="#XMLID_20_"
       gradientUnits="userSpaceOnUse" /><linearGradient
       x1="42"
       y1="4"
       x2="42"
       y2="76.000504"
       id="linearGradient4163"
       xlink:href="#XMLID_20_"
       gradientUnits="userSpaceOnUse" /><linearGradient
       x1="55.972698"
       y1="40"
       x2="64.000999"
       y2="40"
       id="XMLID_24_"
       gradientUnits="userSpaceOnUse"><stop
         id="stop3284"
         style="stop-color:#bff500;stop-opacity:1"
         offset="0" /><stop
         id="stop3286"
         style="stop-color:#00bf00;stop-opacity:1"
         offset="1" /></linearGradient><linearGradient
       x1="63.244099"
       y1="40"
       x2="76.000999"
       y2="40"
       id="XMLID_25_"
       gradientUnits="userSpaceOnUse"><stop
         id="stop3293"
         style="stop-color:#bff500;stop-opacity:1"
         offset="0" /><stop
         id="stop3295"
         style="stop-color:#00bf00;stop-opacity:1"
         offset="1" /></linearGradient><linearGradient
       x1="67.555702"
       y1="40"
       x2="88.000999"
       y2="40"
       id="XMLID_26_"
       gradientUnits="userSpaceOnUse"
       gradientTransform="translate(-0.001,0)"><stop
         id="stop3302"
         style="stop-color:#bff500;stop-opacity:1"
         offset="0" /><stop
         id="stop3304"
         style="stop-color:#00bf00;stop-opacity:1"
         offset="1" /></linearGradient><linearGradient
       x1="55.972698"
       y1="40"
       x2="64.000999"
       y2="40"
       id="linearGradient4181"
       xlink:href="#XMLID_24_"
       gradientUnits="userSpaceOnUse" /><linearGradient
       x1="63.244099"
       y1="40"
       x2="76.000999"
       y2="40"
       id="linearGradient4183"
       xlink:href="#XMLID_24_"
       gradientUnits="userSpaceOnUse" /><linearGradient
       gradientUnits="userSpaceOnUse"
       id="XMLID_16_"
       y2="52.0005"
       x2="2"
       y1="28"
       x1="2"><stop
         offset="0"
         style="stop-color:#ad7300;stop-opacity:1"
         id="stop3218" /><stop
         offset="0.5"
         style="stop-color:#888888;stop-opacity:1"
         id="stop3220" /><stop
         offset="1"
         style="stop-color:#555555;stop-opacity:1"
         id="stop3222" /></linearGradient><linearGradient
       gradientUnits="userSpaceOnUse"
       id="XMLID_30_"
       y2="52.0005"
       x2="10"
       y1="28"
       x1="10"><stop
         offset="0.1"
         style="stop-color:#ffffff;stop-opacity:1"
         id="stop3342" /><stop
         offset="0.25"
         style="stop-color:#fff6c8;stop-opacity:1"
         id="stop3344" /><stop
         offset="0.5"
         style="stop-color:#e39700;stop-opacity:1"
         id="stop3346" /><stop
         offset="0.89999998"
         style="stop-color:#ffdd00;stop-opacity:1"
         id="stop3348" /></linearGradient><radialGradient
       inkscape:collect="always"
       xlink:href="#linearGradient3973"
       id="radialGradient4026"
       gradientUnits="userSpaceOnUse"
       gradientTransform="matrix(0.34140942,0.00362151,-0.00356193,0.33579364,-1.8864792,-3.9599884)"
       cx="23.905838"
       cy="28.31974"
       fx="23.905838"
       fy="28.31974"
       r="26" /><radialGradient
       inkscape:collect="always"
       xlink:href="#linearGradient3973"
       id="radialGradient4028"
       gradientUnits="userSpaceOnUse"
       gradientTransform="matrix(0.24938673,0,0,0.49995833,1.0503649,-11.088607)"
       cx="71.984375"
       cy="44"
       fx="71.984375"
       fy="44"
       r="16.015625" /><radialGradient
       inkscape:collect="always"
       xlink:href="#linearGradient3973"
       id="radialGradient4059"
       gradientUnits="userSpaceOnUse"
       gradientTransform="matrix(0.24938673,0,0,0.49995833,1.0503649,-11.088607)"
       cx="71.984375"
       cy="44"
       fx="71.984375"
       fy="44"
       r="16.015625" /><radialGradient
       inkscape:collect="always"
       xlink:href="#linearGradient3973"
       id="radialGradient4062"
       gradientUnits="userSpaceOnUse"
       gradientTransform="matrix(0.28272078,0,0,0.49995833,-1.9419909,-11.088607)"
       cx="71.984375"
       cy="44"
       fx="71.984375"
       fy="44"
       r="16.015625" /><radialGradient
       inkscape:collect="always"
       xlink:href="#linearGradient3973"
       id="radialGradient4068"
       gradientUnits="userSpaceOnUse"
       gradientTransform="matrix(0.34140942,0.00362151,-0.00356193,0.33579364,-1.8864792,-2.8690794)"
       cx="23.905838"
       cy="28.31974"
       fx="23.905838"
       fy="28.31974"
       r="26" /><radialGradient
       inkscape:collect="always"
       xlink:href="#linearGradient3973"
       id="radialGradient4071"
       gradientUnits="userSpaceOnUse"
       gradientTransform="matrix(0.34140942,0.00362151,-0.00356193,0.33579364,-1.8864792,-2.8690794)"
       cx="23.905838"
       cy="28.31974"
       fx="23.905838"
       fy="28.31974"
       r="26" /><radialGradient
       inkscape:collect="always"
       xlink:href="#linearGradient3973"
       id="radialGradient4075"
       gradientUnits="userSpaceOnUse"
       gradientTransform="matrix(0.34140942,0.00362151,-0.00356193,0.33579364,-1.8864792,-2.8690794)"
       cx="23.905838"
       cy="28.31974"
       fx="23.905838"
       fy="28.31974"
       r="26" /><radialGradient
       inkscape:collect="always"
       xlink:href="#linearGradient3973"
       id="radialGradient4086"
       gradientUnits="userSpaceOnUse"
       gradientTransform="matrix(0.34140942,0.00362151,-0.00356193,0.33579364,-1.8864792,-2.8690794)"
       cx="23.905838"
       cy="28.31974"
       fx="23.905838"
       fy="28.31974"
       r="26" /><radialGradient
       inkscape:collect="always"
       xlink:href="#linearGradient3973"
       id="radialGradient4093"
       gradientUnits="userSpaceOnUse"
       gradientTransform="matrix(0.34140942,0.00362151,-0.00356193,0.33579364,-1.8864792,-2.8690794)"
       cx="23.905838"
       cy="28.31974"
       fx="23.905838"
       fy="28.31974"
       r="26" /><clipPath
       id="clipPath6259-5"><rect
         x="26.999"
         y="221.5"
         width="1.8763"
         height="4.8735"
         style="color:#bebebe;fill:#bebebe"
         id="rect6261-61" /></clipPath><clipPath
       id="clipPath6265-334"><rect
         x="26.966"
         y="221.33"
         width="2.8977"
         height="5.2159"
         style="color:#bebebe;fill:#bebebe"
         id="rect6267-61" /></clipPath><clipPath
       id="clipPath6279-3"><rect
         x="26.85"
         y="220.75"
         width="3.825"
         height="6.375"
         style="color:#bebebe;fill:#bebebe"
         id="rect6281-9" /></clipPath></defs><linearGradient
     x1="4"
     y1="26"
     x2="16"
     y2="26"
     id="XMLID_17_"
     gradientUnits="userSpaceOnUse"><stop
       id="stop3227"
       style="stop-color:#ad7300;stop-opacity:1"
       offset="0" /><stop
       id="stop3229"
       style="stop-color:#cf8900;stop-opacity:1"
       offset="1" /></linearGradient><linearGradient
     x1="28"
     y1="4"
     x2="28"
     y2="76.000504"
     id="XMLID_18_"
     gradientUnits="userSpaceOnUse"><stop
       id="stop3234"
       style="stop-color:#ffffff;stop-opacity:1"
       offset="0.3136" /><stop
       id="stop3236"
       style="stop-color:#888888;stop-opacity:1"
       offset="0.5" /><stop
       id="stop3238"
       style="stop-color:#dddddd;stop-opacity:1"
       offset="0.89999998" /></linearGradient><linearGradient
     x1="31.9995"
     y1="40"
     x2="40"
     y2="40"
     id="XMLID_19_"
     gradientUnits="userSpaceOnUse"><stop
       id="stop3243"
       style="stop-color:#000000;stop-opacity:0"
       offset="0" /><stop
       id="stop3245"
       style="stop-color:#000000;stop-opacity:1"
       offset="1" /></linearGradient><linearGradient
     x1="25.9629"
     y1="20.433599"
     x2="31.0891"
     y2="29.404699"
     id="XMLID_20_"
     gradientUnits="userSpaceOnUse"><stop
       id="stop3250"
       style="stop-color:#ffffff;stop-opacity:1"
       offset="0.2308" /><stop
       id="stop3252"
       style="stop-color:#ffffff;stop-opacity:0"
       offset="1" /></linearGradient><linearGradient
     x1="19"
     y1="27.142599"
     x2="19"
     y2="49.465099"
     id="XMLID_21_"
     gradientUnits="userSpaceOnUse"><stop
       id="stop3261"
       style="stop-color:#ffffff;stop-opacity:1"
       offset="0" /><stop
       id="stop3263"
       style="stop-color:#000000;stop-opacity:1"
       offset="1" /></linearGradient><linearGradient
     x1="16"
     y1="64"
     x2="40"
     y2="64"
     id="XMLID_22_"
     gradientUnits="userSpaceOnUse"><stop
       id="stop3268"
       style="stop-color:#555555;stop-opacity:1"
       offset="0" /><stop
       id="stop3270"
       style="stop-color:#323232;stop-opacity:1"
       offset="1" /></linearGradient><linearGradient
     x1="16"
     y1="16"
     x2="40"
     y2="16"
     id="XMLID_23_"
     gradientUnits="userSpaceOnUse"><stop
       id="stop3275"
       style="stop-color:#555555;stop-opacity:1"
       offset="0" /><stop
       id="stop3277"
       style="stop-color:#323232;stop-opacity:1"
       offset="1" /></linearGradient><linearGradient
     x1="44.0005"
     y1="4"
     x2="44.0005"
     y2="76.000504"
     id="XMLID_27_"
     gradientUnits="userSpaceOnUse"><stop
       id="stop3309"
       style="stop-color:#bbbbbb;stop-opacity:1"
       offset="0" /><stop
       id="stop3311"
       style="stop-color:#ffffff;stop-opacity:1"
       offset="0.1" /><stop
       id="stop3313"
       style="stop-color:#eeeeee;stop-opacity:1"
       offset="0.25" /><stop
       id="stop3315"
       style="stop-color:#888888;stop-opacity:1"
       offset="0.5" /><stop
       id="stop3317"
       style="stop-color:#eeeeee;stop-opacity:1"
       offset="0.73369998" /><stop
       id="stop3319"
       style="stop-color:#bbbbbb;stop-opacity:1"
       offset="1" /></linearGradient><linearGradient
     x1="42"
     y1="4"
     x2="42"
     y2="76.000504"
     id="XMLID_28_"
     gradientUnits="userSpaceOnUse"><stop
       id="stop3324"
       style="stop-color:#ffffff;stop-opacity:1"
       offset="0.2" /><stop
       id="stop3326"
       style="stop-color:#000000;stop-opacity:1"
       offset="1" /></linearGradient><linearGradient
     x1="50.000999"
     y1="4"
     x2="50.000999"
     y2="76.000504"
     id="XMLID_29_"
     gradientUnits="userSpaceOnUse"><stop
       id="stop3331"
       style="stop-color:#555555;stop-opacity:1"
       offset="0" /><stop
       id="stop3333"
       style="stop-color:#888888;stop-opacity:1"
       offset="0.5" /><stop
       id="stop3335"
       style="stop-color:#555555;stop-opacity:1"
       offset="1" /></linearGradient><path
     style="fill:#bebebe;fill-opacity:1;stroke-width:0.77065462"
     d="M 7.140625,0.984375 3.296875,5.6035156 3,6.5039062 V 6.09375 H 0.60546875 v 3.8125 H 3 V 9.4960938 l 0.296875,0.9003902 3.84375,4.619141 V 8.0175781 7.9824219 Z M 3.8007812,9.2304688 c -2.5338541,4.5130212 -1.2669271,2.2565102 0,0 z"
     transform="translate(0,-0.7272725)"
     id="rect12"
     inkscape:connector-curvature="0"
     sodipodi:nodetypes="ccccccccccccccc" /><path
     inkscape:connector-curvature="0"
     d="m 15.393938,7.2727276 c 0,-2.5108828 -0.938028,-4.6577505 -2.293875,-5.6447554 l -0.899564,0.8096306 c 1.167494,0.8267607 1.979071,2.6883344 1.979071,4.8351248 0,2.1467904 -0.811499,4.0084434 -1.979071,4.8351254 l 0.899564,0.809631 c 1.355613,-0.986538 2.293875,-3.1332511 2.293875,-5.6443674 z"
     style="color:#bebebe;opacity:0.35;fill:#bebebe;fill-opacity:1;stroke-width:0.77864069"
     id="path6945-2" /><path
     inkscape:connector-curvature="0"
     d="m 13.009741,7.2727276 c 0,-1.6980602 -0.645307,-3.1804355 -1.619184,-4.1155051 l -0.831744,0.7421224 c 0.751622,0.79943 1.237027,2.0110729 1.237027,3.3733828 0,1.3623099 -0.485226,2.5739527 -1.236871,3.3733833 l 0.832055,0.742138 c 0.974002,-0.934369 1.618717,-2.4169011 1.618717,-4.1151163 z"
     style="color:#bebebe;opacity:0.35;fill:#bebebe;fill-opacity:1;stroke-width:0.77864069"
     id="path6943-6" /><path
     inkscape:connector-curvature="0"
     d="m 10.716254,7.2727276 c 0,-1.0322436 -0.342119,-1.9793048 -0.8995634,-2.7211932 L 8.9620548,5.3161591 c 0.3366842,0.5628022 0.5397536,1.2366371 0.5397536,1.9565686 0,0.7199386 -0.2031086,1.3937664 -0.5397385,1.9565679 L 9.8166283,9.9939212 C 10.374135,9.2518765 10.71627,8.3048156 10.71627,7.2725719 Z"
     style="color:#bebebe;opacity:1;fill:#bebebe;fill-opacity:1;stroke-width:0.77864069"
     id="path6941-5" /></svg>
